assets/img/label2.svg

<svg xmlns="http://www.w3.org/2000/svg" viewBox="0 0 24 24" enable-background="new 0 0 24 24"><style type="text/css">.st0{fill:#FFFFFF;}</style><path class="st0" d="M18.1 13.4c0-3.6-1.2-11.6-1.2-12 0-.1-.1-.2-.2-.3-.1-.1-.2-.1-.4-.1-.1 0-3.1 1.1-6 3.2-1.8 1.2-3.2 2.5-4.2 3.9-1.3 1.7-1.9 3.5-1.9 5.3 0 3.4 2.4 6.2 5.6 6.9.2 1 .4 1.9.6 2.7.1.2.2.3.4.3h.1c.2-.1.4-.3.3-.6-.2-.7-.4-1.5-.6-2.3h.4c4 0 7.1-3.2 7.1-7zm-13.1 0c0-3.7 3.2-6.6 5.8-8.4 1.7-1.2 3.4-2 4.6-2.6-.9 1.4-2.8 4.2-3.9 7-.1.2 0 .5.3.6h.2c.2 0 .3-.1.4-.3 1.1-2.8 3-5.8 3.9-7 .3 2.4 1 7.9 1 10.6 0 3.4-2.7 6.1-6.1 6.1-3.4.1-6.2-2.7-6.2-6zm0 0M11.3 11.5c-.2 0-.5.1-.5.4-.1.5-.1.9-.1 1.4 0 .2.2.4.4.4s.4-.2.4-.4c0-.4 0-.8.1-1.2.1-.3-.1-.6-.3-.6zm0 0"/></svg>

<?xml version="1.0" encoding="utf-8"?>
<!-- Generator: Adobe Illustrator 19.2.0, SVG Export Plug-In . SVG Version: 6.00 Build 0)  -->
<svg version="1.1" id="Layer_1" xmlns="http://www.w3.org/2000/svg" xmlns:xlink="http://www.w3.org/1999/xlink" x="0px" y="0px"
	 viewBox="0 0 24 24" style="enable-background:new 0 0 24 24;" xml:space="preserve">
<style type="text/css">
	.st0{fill:#FFFFFF;}
</style>
<g>
	<path class="st0" d="M18.1,13.4c0-3.6-1.2-11.6-1.2-12c0-0.1-0.1-0.2-0.2-0.3C16.6,1,16.5,1,16.3,1c-0.1,0-3.1,1.1-6,3.2
		C8.5,5.4,7.1,6.7,6.1,8.1c-1.3,1.7-1.9,3.5-1.9,5.3c0,3.4,2.4,6.2,5.6,6.9c0.2,1,0.4,1.9,0.6,2.7c0.1,0.2,0.2,0.3,0.4,0.3
		c0,0,0.1,0,0.1,0c0.2-0.1,0.4-0.3,0.3-0.6c-0.2-0.7-0.4-1.5-0.6-2.3c0.1,0,0.3,0,0.4,0C15,20.4,18.1,17.2,18.1,13.4L18.1,13.4z
		 M5,13.4C5,9.7,8.2,6.8,10.8,5c1.7-1.2,3.4-2,4.6-2.6c-0.9,1.4-2.8,4.2-3.9,7c-0.1,0.2,0,0.5,0.3,0.6c0.1,0,0.1,0,0.2,0
		c0.2,0,0.3-0.1,0.4-0.3c1.1-2.8,3-5.8,3.9-7c0.3,2.4,1,7.9,1,10.6c0,3.4-2.7,6.1-6.1,6.1C7.8,19.5,5,16.7,5,13.4L5,13.4z M5,13.4"
		/>
	<path class="st0" d="M11.3,11.5c-0.2,0-0.5,0.1-0.5,0.4c-0.1,0.5-0.1,0.9-0.1,1.4c0,0.2,0.2,0.4,0.4,0.4c0,0,0,0,0,0
		c0.2,0,0.4-0.2,0.4-0.4c0-0.4,0-0.8,0.1-1.2C11.7,11.8,11.5,11.5,11.3,11.5L11.3,11.5z M11.3,11.5"/>
</g>
</svg>
